X:1
T:Hymno dos quintanistas de Direito de 1876 a 1877
T:Hymno dos quintanistas de Direito de 1876 a 1877
T:Coimbra 1877
T:António Simões de Carvalho Barbas
T:António Cândido Gonçalves Crespo
T:Galáxia Sonora Coimbrã 2020 (A. Caetano)
T:Galáxia Sonora Coimbrã 2020 (A. Caetano)
T:Galáxia Sonora Coimbrã 2020 (A. Caetano)
C:António Simões de Carvalho Barbas
Z:A. Gonçalves Crespo
Z:Galáxia Sonora Coimbrã 2020 (A. Caetano)
%%score ( 1 2 ) { 3 | 4 }
L:1/8
Q:1/4=100
M:4/4
K:F
V:1 treble-8 nm="Voz"
V:2 treble-8 
V:3 treble nm="Piano"
V:4 bass 
V:1
 z2 |: z8 | z8 | z8 |1 z8 | z8 | z8 | z8 | z8 :|2 z8 | z8 | z8 | z8 ||S z2 z2 z2"^Voz" c=B || %14
w: |||||||||||||Do Mon-|
 d4 c2 A>^G | B4 A2 GF | C2 F>A c2 ^c2 | e4 d z d>^c | _e4 d z B>A | c4 B2 (G>F) | E2 G>B d2 d2 | %21
w: de- go na ci-|da- de ma- ais|bel- la que Sa- la-|man- ca pas- sa-|mos a mo- ci|da- de ri- *|so- nha gen- til e|
 c4 A2 c>B | d4 c2 A>^G | B4 A z GF | C2 F>A c2 ^c2 | e4 d2 z3/2 d/ | d2 a4 g2 | (c2 g4) f2 | %28
w: fran- ca pas- sa-|mos a mo- ci-|da- de ri- *|so- nha gen- til e|fran- ca sor-|rir e fol-|gar _ cho-|
 G2 _d4 c2 | F z z2 z2"^Côro" [Ac][A^c]/[Ac]/ |: [Bd]2 z [Ac] [ce]2 z [Bd] | %31
w: rê- as tran-|çar Que tu- do|is- to'é um the-|
 (([Bd]3 [Ac])) [Af]2 [df][df] | [ce] z [ce] z [Bd] z [Bd] z | [Ac]4 [FA]2 [Ac][A^c]/[Ac]/ | %34
w: sou- * ro Que tu-|do nos faz sau-|da- de Quan- do'a i-|
 [Bd]3 [Ac]/[Ac]/ [ce]3 [Bd] | [Bd]3 [Ac] [GB]2 [G=B]2 | [FA]3 [FA] dc BG | FF z2 z4 | %38
w: nun- da a po- ei- ra|d'oi- ro da fes-|ti- va mo- * * ci-|da- de|
 z2 [ceg]2 [ceg]2 [ceg]2 | [cfa][cfa] z2 z4 | z2 [Bce]2 [Bce]2 [Bce]2 | [Acf][Acf] z2 z4!D.S.! |] %42
w: nos faz sau-|da- de|nos faz sau-|da- de|
 z8 |] %43
w: |
V:2
 x2 |: x8 | x8 | x8 |1 x8 | x8 | x8 | x8 | x8 :|2 x8 | x8 | x8 | x8 || x8 || x8 | x8 | x8 | x8 | %18
 x8 | x8 | x8 | x8 | x8 | x8 | x8 | x8 | x8 | x8 | x8 | x8 |: x8 | x8 | x8 | x8 | x8 | x4 agfd | %36
 f3 e x4 | x8 | x8 | x8 | x8 | x8 |] x8 |] %43
V:3
 (3AGF |: d2 =B2 c2 (3AGF | d2 =B2 c2 (3A^GA | (3c=Bc (3fef (3a^ga (3c'ba |1 a3 g d2 (3BAG | %5
 _e2 ^c2 d2 (3BAG | _e2 ^c2 d2 d>d | g2 (3gfe d2 (3dc=B | c4 A2 (3AGF :|2 a3 g d2 z2 | %10
 (3d^cd a3 g f>d | d4 c2 (3AB=B | d2 c3 =B _BG || F[A,CF] !/![A,CF]2 z [A,CF] !/![A,CF]2 || %14
 z [^G,=B,F] !/![G,B,F]2 z [A,CF] !/![A,CF]2 | z [B,DF] !/![B,DF]2 z [A,CF] !/![A,CF]2 | %16
 z [A,CF] !/![A,CF]2 z [A,CF] !/![A,CF]2 | z [B,DG] !/![B,DG]2 z [B,DG] !/![B,DG]2 | %18
 z [CD^F] !/![CDF]2 z [B,DG] !/![B,DG]2 | z [CD^F] !/![CDF]2 z [B,DG] !/![B,DG]2 | %20
 z [G,CG] !/![G,CG]2 z [G,CG] !/![G,CG]2 | z [A,CF] !/![A,CF]2 z [A,CF] !/![A,CF]2 | %22
 z [^G,=B,F] !/![G,B,F]2 z [A,CF] !/![A,CF]2 | z [B,DF] !/![B,DF]2 z [A,CF] !/![A,CF]2 | %24
 z [A,CF] !/![A,CF]2 z [A,CF] !/![A,CF]2 | z [B,DG] !/![B,DG]2 z [B,DG] !/![B,DG]2 | %26
 z [B,DG] !/![B,DG]2 z2 !/![B,DG]2 | z [A,CF] !/![A,CF]2 z2 !/![A,CF]2 | %28
 z [B,CE] !/![B,CE]2 z2 !/![B,CE]2 | [A,CF][Ac']/[Ac']/ [Ac'][Ac'] [Ac'][Ac'] [Aac']>[^Aa^c'] |: %30
 [dbd']3 [cac'] [ec'e']3 [dbd'] | [dbd']3 [cac'] [eaf'] z2 [fbf'] | %32
 z [ec'e'] z [ec'e'] z [dbd'] z [dbd'] | z [cac'] z [cac'] [Afa]2 [cac']>[^ca^c'] | %34
 [dbd']3 [cac'] [ec'e']3 [dbd'] | [DBd]3 [CAc] [Aa][Gg][Fg][Dd] | [Dd]3 [Cc] [Dd][Cc][B,B][G,G] | %37
 [Ff]2 (3ccc (3cAc (3fcA | c2 [GBce]2 [GBce]2 [GBce]2 | [Acf] z (3ccc (3cAc (3fcA | %40
 c2 [GBce]2 [GBce]2 [GBce]2 | [Acf]2 z2 [Acf]2 z2 |] [A,CF]2 z2 z4 |] %43
V:4
 z2 |: z2 ([F,^G,=B,D]2 [F,A,C]2) z2 | z2 ([F,^G,=B,D]2 [F,A,C]2) z2 | %3
 F,,2 [F,A,C]2 C,2 [F,A,C]2 |1 B,,2 [G,B,D]2 [G,B,D]2 z2 | z2 [^F,A,CD-]2 [G,B,D]2 z2 | %6
 z2 [^F,A,CD-]2 [G,B,D]2 z2 | [E,,E,]2 [G,B,C]2 [C,,C,]2 [G,B,C]2 | z2 [F,A,C]2 [F,A,C]2 z2 :|2 %9
 B,,2 [G,B,D]2 [G,B,D]2 z2 | B,,2 [G,B,D]2 B,,2 [G,B,D]2 | C,2 [F,A,C]2 C,2 [F,A,C]2 | %12
 [E,,E,]2 [G,B,C]2 [C,,C,]2 [G,B,C]2 || F,, z z2 F,, z z2 || F,, z z2 F,, z z2 | %15
 F,, z z2 F,, z z2 | F,, z z2 F,, z A,, z | B,, z z2 B,, z z2 | D, z z2 D, z z2 | D, z z2 D, z z2 | %20
 C, z z2 E, z C, z | F, z z2 F,, z z2 | F,, z z2 F,, z z2 | F,, z z2 F,, z z2 | %24
 F,, z z2 F,, z A,, z | B,, z z2 B,, z z2 | B,, z z2 B,, z z2 | F, z z2 F,, z z2 | %28
 [C,,C,]2 z2 C,2 z2 | F,[C,C]/[C,C]/ [C,C][C,C] [C,C] z z2 |: %30
 C,[E,G,B,]G,,[E,G,B,] B,,[E,G,B,]C,[G,B,C] | F,[A,C]A,,[F,A,C] C,[F,A,C]F,[A,C] | %32
 C,[G,B,C] E,[G,B,C] C,[G,B,C] E,[G,B,C] | F,[A,C] F,[A,C] [F,A,C]2 z2 | %34
 C,[E,G,B,]G,,[E,G,B,] B,,[E,G,B,]C,[G,B,C] | F,[A,C] F,,[F,A,] B,,[D,G,B,] =B,,[D,F,_A,] | %36
 C,[F,A,] C,[F,A,C] C,[E,G,B,] [C,,C,][E,G,B,] | [F,A,]2 (3CCC (3CA,C (3FCA, | %38
 C2 [C,,C,]2 [E,,E,]2 [C,,C,]2 | [F,,A,]2 (3CCC (3CA,C (3FCA, | C2 [C,,C,]2 [E,,E,]2 [C,,C,]2 | %41
 [F,,F,]2 z2 [F,,F,]2 z2 |] F,,2 z2 z4 |] %43

